X:40
T:The Raveled Hank of Yarn
M:2/2
R:Reel
K:G
|: B2BG A2BA | GBB/B/B GBB/B/B | dAA/A/A d2e/f/g |1 fdcA BGGA :|2 fdcA BGG2 |
| DGG/G/G DGB/c/d | g2ga bgaf | DGG/G/G DGB/c/d | egdB BAA2 |
| dGG/G/G dGB/c/d | g2ga bgaf | ggga b2ag | fdcA BGGA |

